X:67
T: Pao yang yu
N: C0087
O: China, Shanxi, Hequ
S: I, 324, 1)]
N: Von Junge und Maedchen gemeinsam. Die Fuellwoerter beschreiben
N: den Klang der o.a. Taetigkeiten.
N: Doppelt in C0086 und C1264 und C1210
R: Xiaodiao. Miaoxie Laodong Qingjing]
M: 2/4
L: 1/16
K: D
z2B2f2ed | e2B6 | d2cBA2FAB4
z2B2f2ed | e2F6 | AAABFED2E4
z2B2f2ed | e2B6 | d2cBA2FAB4
z4fedB | d2F6 | AAABFED2 | E8

